img/svg/profile-icons/home-ico.svg

<svg width="22" height="22" viewBox="0 0 22 22" fill="none" xmlns="http://www.w3.org/2000/svg">
<g clip-path="url(#clip0)">
<path d="M21.7503 10.1587L12.796 1.14546C12.7845 1.13385 12.7726 1.1226 12.7605 1.11168C11.7828 0.233788 10.3053 0.230651 9.32378 1.10442C9.31158 1.11529 9.29972 1.12651 9.28816 1.13802L0.252308 10.1561C-0.0836221 10.4914 -0.0841807 11.0355 0.251104 11.3715C0.586433 11.7074 1.13055 11.7079 1.46643 11.3727L2.14843 10.692V18.112C2.14843 20.0074 3.69049 21.5495 5.58593 21.5495H8.67968C9.15431 21.5495 9.53906 21.1648 9.53906 20.6901V13.6862H12.5469V20.6901C12.5469 21.1648 12.9316 21.5495 13.4062 21.5495H16.4141C18.3095 21.5495 19.8516 20.0074 19.8516 18.112C19.8516 17.6374 19.4668 17.2526 18.9922 17.2526C18.5175 17.2526 18.1328 17.6374 18.1328 18.112C18.1328 19.0597 17.3618 19.8308 16.4141 19.8308H14.2656V12.8269C14.2656 12.3522 13.8809 11.9675 13.4062 11.9675H8.67968C8.20505 11.9675 7.82031 12.3522 7.82031 12.8269V19.8308H5.58593C4.63821 19.8308 3.86718 19.0597 3.86718 18.112V9.00263C3.86718 8.99404 3.86705 8.98549 3.8668 8.97698L10.482 2.37479C10.804 2.10138 11.2762 2.10241 11.597 2.37715L18.1328 8.9561V13.8151C18.1328 14.2898 18.5175 14.6745 18.9922 14.6745C19.4668 14.6745 19.8516 14.2898 19.8516 13.8151V10.6862L20.531 11.3701C20.6989 11.5392 20.9197 11.6238 21.1406 11.6238C21.3596 11.6238 21.5787 11.5405 21.7463 11.374C22.083 11.0395 22.0848 10.4954 21.7503 10.1587Z" fill="#4C51CC"/>
</g>
<defs>
<clipPath id="clip0">
<rect width="22" height="22" fill="white"/>
</clipPath>
</defs>
</svg>

<svg width="22" height="22" fill="none" xmlns="http://www.w3.org/2000/svg"><g clip-path="url(#clip0)"><path d="M21.75 10.159l-8.954-9.014a2.576 2.576 0 00-3.508-.007L.252 10.156a.86.86 0 001.214 1.217l.682-.681v7.42a3.441 3.441 0 003.438 3.438H8.68a.86.86 0 00.86-.86v-7.004h3.007v7.004c0 .475.385.86.86.86h3.007a3.441 3.441 0 003.438-3.438.86.86 0 00-1.72 0 1.72 1.72 0 01-1.718 1.719h-2.148v-7.004a.86.86 0 00-.86-.86H8.68a.86.86 0 00-.86.86v7.004H5.586a1.72 1.72 0 01-1.719-1.719V8.977l6.615-6.602a.859.859 0 011.115.002l6.536 6.58v4.858a.86.86 0 101.719 0v-3.129l.679.684a.856.856 0 001.215.004.86.86 0 00.004-1.215z" fill="#4C51CC"/></g><defs><clipPath id="clip0"><path fill="#fff" d="M0 0h22v22H0z"/></clipPath></defs></svg>
